X: 12705
T: Father Fielding's Favourite
R: jig
M: 6/8
K: Gmajor
|:D|G2A BcA|BGF GBc|dBG FAG|FDC DEF|
G2A BcA|BAG fed|cAG FGA|BGF G2:|
|:Bd|gfg afd|cBc dBG|g2b afd|cBc def|
geg fdf|ece gfe|ded cBA|BGF G2:|

